X: 6121
T: Captain John's
R: hornpipe
M: 4/4
K: Dmajor
|:f>g|a>fg>e d>fe>d|c>eA>A A>BAG|F>Ad>f g>fe>d|c>eA>^G A2 f>=g|
a>fg>e d>fe>d|c>de>c A2 (3BAG|F>A (3def g>ed>c|d2 d>c d2:|
c>d|:e>A^G>A =g2 f>g|e>A (3AAA g2 d>g|g>fe>d d>cB>A|G>B (3BBB (3B=cB (3BAG|
F>A (3ddd c>A (3eee|d>A (3fff e>A (3ggg|d2 (3agf b>ge>c|1 d2 d>c d>gf>g:|2 d2 d>c d2||

